X: 9
T: Pollonesse #9
M: 3/4
L: 1/16
K: F
Q:120
a3f c2cd B2Bc|A2A2 cBAB c4|d2dB f2fd B2Bd| c2cB A2AB c4|
d2dB f2fd B2Bd| c2cB A2AB c4|a2ag b2a2 g2f2|efga g4f4:|
g3a g2eg gfed|c2cd e2ef g2ga|g3a g2eg gfed|c2cd c2cd cBAB|
a3f c2cd B2Bc|A2Ac cBAB c4|a3f c2cd B2Bc|A2Ac cBAB c4|
d2dB f2fd B2Bd|c2cB A2AB c4|d2dB f2fd B2Bd|c2cB A2AB c4|
a2ag b2a2 g2f2|efga g4 f4:|

